src/16/actions/archive-insert.svg

<svg viewBox="0 0 16 16" xmlns="http://www.w3.org/2000/svg"><style type="text/css" id="current-color-scheme">.ColorScheme-Text{color:#5d656b;}</style><g style="fill:currentColor;fill-opacity:1;stroke:none" class="ColorScheme-Text"><path d="m2 2v12h7v-1h-6v-10h5v1h1v-1h4v6h1v-7zm6 2h-1v1h1zm0 1v1h1v-1zm0 1h-1v1 1h2v-1h-1z"/><path d="m11 9v2h-2v1h2v2h1v-2h2v-1h-2v-2z"/></g></svg>

<svg viewBox="0 0 16 16" xmlns="http://www.w3.org/2000/svg"><g fill="currentColor" color="#5d656b"><path d="M2 2v12h7v-1H3V3h5v1h1V3h4v6h1V2zm6 2H7v1h1zm0 1v1h1V5zm0 1H7v2h2V7H8z"/><path d="M11 9v2H9v1h2v2h1v-2h2v-1h-2V9z"/></g></svg>
